X: 031
T: Bevis Mount
B: 204 Favourite Country Dances
N: Published by Straight & Skillern, London ca.1775
F: http://imslp.org/wiki/204_Favourite_Country_Dances_(Various) p.16 #31
Z: 2014 John Chambers <jc:trillian.mit.edu>
M: 2/4
L: 1/8
K: G
% - - - - - - - - - - - - - - - - - - - - - - - - -
|:\
B>cd>e | d>Bc>A | GGBG | AGAc |\
B>cd>e | dBcA | GGAF | G2G,2 :|
|:\
ccBB | eedd | ggbg | agab |\
ccBB | eedd | ggaf | g2g2 :|
|:\
bagf | edcB | BGdB | AGAB |\
bagf | edcB | d>edB | G2G2 :|
|:\
[D2B,2][D2B,2] | [E2C2][E2C2] | c>edB | AGAB |\
[D2B,2][D2B,2] | [E2C2][E2C2] | dBAB | G2G2 :|
% - - - - - - - - - - - - - - - - - - - - - - - - -
%%begintext align
%% Cast off 1 Cu. Allemand half round to the right .|. cast
%% up 1 Cu. Allemand half round to the left :|. cast down one
%% Cu. & foot it .|. cast up 1 Cu. & foot it :|: right hands across
%% the round .|. hands 4 the round back again :|: cross over
%% 1 Cu. .|. right & left at top :|:
%%endtext

%%sep 1 1 500
%%sep 1 1 500
